Easy-Camper/img/advantages/01.svg

<svg width="32" height="32" fill="none" xmlns="http://www.w3.org/2000/svg"><path d="M22 16v6h-6v6h12V16h-6zM4 4h12v12" fill="#22262A"/><path d="M20 12V0H0v20h12v12h20V12H20zM2 18V2h16v16H2zm28 12H14V20h6v-6h10v16z" fill="#22262A"/></svg>

<svg width="32" height="32" viewBox="0 0 32 32" fill="none" xmlns="http://www.w3.org/2000/svg">
<path d="M22 16V22H16V28H28V16H22Z" fill="#22262A"/>
<path d="M4 4H16V16" fill="#22262A"/>
<path d="M20 12V0H0V20H12V32H32V12H20ZM2 18V2H18V12V14V18H14H12H2ZM30 30H14V20H20V14H30V30Z" fill="#22262A"/>
</svg>
